!!!OTL: Melodie zum Bergreihen von Joachimsthal.
!!!ARE: Europa, Mitteleuropa, Deutschland
!!!SCT: A0634
!!!TXL: @@DE
!!!YEM: Copyright 1995, estate of Helmut Schaffrath.
**kern	**text
*M6/2	*
*k[]	*
*met(c|)	*
*clefC4	*
*D:dor	*
!LO:TX:a:t=dor.	!
2ryy	.
{2D	Ach
=1	=1
1D	Gott
1A	von
2c	Him-
2B	-mel-
=2	=2
1A	-rei-
1E}	-che,
{1c	durch
=3	=3
1B	Chriſtum
2A	.
1G	dei-
2F	-nen
=4	=4
0E}	Sohn,}
{2r	.
2D	Ver-
=5	=5
1D	-leih
1A	mir
2c	gne-
2B	-dig-
=6	=6
1A	-li-
1E}	-che
{1c	dein
=7	=7
1B	heil-
2A	-gen
1G	geiſt
2F	ſo
=8	=8
0E	fron,}
2r}	.
{2E	Das
=9	=9
1E	ich
2E	mag
1E	fro-
2F	-lich
=10	=10
*lig	*
1G	ſin-
2G	.
*Xlig	*
4F	.
4E	.
1D	.
=11	=11
0C}	-gen
{1G	von
=12	=12
1G	dei-
2G	-nem
1G	Gött-
2F	-lichen
=13	=13
0E	wort,
2r}	.
{2E	das
=14	=14
1D	yetʒt
1A	mit
2A/	gwalt
2G	thut
=15	=15
1A	dringen
1A}	.
{1c	her-
=16	=16
1B-i	-für
2A/	an
1G	man-
2E	-chem
=17	=17
0D/ll}	ort.
==	==
!!!GTL: Geistliche Volkslieder
!!!AGN: Romanze, Ballade, Lied, religioeses Lied
!! Babsts Gsgb 1553 II No. 62.
!!!ONB: ESAC (Essen Associative Code) Database: ALTDEU
!!!AMT: irregular
!!!AIN: vox
!!!EED: Helmut Schaffrath
!!!EEV: 1.0
!!!RDF**kern: i = editorial accidental
!!!RDF**kern: l = terminal long
!!!AMD: Dorian
!!!URL-scan: https://rosdok.uni-rostock.de/mcrviewer/recordIdentifier/rosdok_ppn738218359/iview2/phys_0815.iview2?x=113.63509606070716&y=1951.632987742778&scale=0.7106933083589261&rotation=0&layout=singlePageLayout&logicalDiv=log_0007
!!!ENC: Anna Maria Matuszewska
!!!EEV: 2024/25/03
*-	*-
